src/assets/images/eyes/16.svg

<svg width="32" height="32" viewBox="0 0 32 32" fill="none" xmlns="http://www.w3.org/2000/svg">
<path fill-rule="evenodd" clip-rule="evenodd" d="M15 10.5C15 11.9239 14.3387 13.1933 13.3064 14.0179C12.5033 13.7485 11.4768 13.5 10.5 13.5C9.5232 13.5 8.49671 13.7485 7.69357 14.0179C6.66132 13.1933 6 11.9239 6 10.5C6 8.01472 8.01472 6 10.5 6C12.9853 6 15 8.01472 15 10.5ZM26 10.5C26 11.9239 25.3387 13.1933 24.3064 14.0179C23.5033 13.7485 22.4768 13.5 21.5 13.5C20.5232 13.5 19.4967 13.7485 18.6936 14.0179C17.6613 13.1933 17 11.9239 17 10.5C17 8.01472 19.0147 6 21.5 6C23.9853 6 26 8.01472 26 10.5Z" fill="white"/>
<path fill-rule="evenodd" clip-rule="evenodd" d="M14 10.5C14 11.9342 13.2606 13.167 12.2022 13.7076C11.6539 13.5842 11.0685 13.5 10.5 13.5C10.1875 13.5 9.87 13.5254 9.55631 13.5688C8.62865 12.9736 8 11.8224 8 10.5C8 8.567 9.34315 7 11 7C12.6569 7 14 8.567 14 10.5ZM24 10.5C24 11.8224 23.3714 12.9736 22.4437 13.5688C22.13 13.5254 21.8125 13.5 21.5 13.5C20.9315 13.5 20.3461 13.5842 19.7978 13.7076C18.7394 13.167 18 11.9342 18 10.5C18 8.567 19.3431 7 21 7C22.6569 7 24 8.567 24 10.5Z" fill="url(#paint0_linear_161_171)"/>
<defs>
<linearGradient id="paint0_linear_161_171" x1="22.1538" y1="7" x2="20.7245" y2="13.6484" gradientUnits="userSpaceOnUse">
<stop stop-color="#553B3E"/>
<stop offset="1" stop-color="#3D2432"/>
</linearGradient>
</defs>
</svg>

<svg width="32" height="32" fill="none" xmlns="http://www.w3.org/2000/svg"><path fill-rule="evenodd" clip-rule="evenodd" d="M15 10.5a4.492 4.492 0 0 1-1.694 3.518c-.803-.27-1.83-.518-2.806-.518-.977 0-2.003.248-2.806.518A4.5 4.5 0 1 1 15 10.5zm11 0a4.492 4.492 0 0 1-1.694 3.518c-.803-.27-1.83-.518-2.806-.518-.977 0-2.003.248-2.806.518A4.5 4.5 0 1 1 26 10.5z" fill="#fff"/><path fill-rule="evenodd" clip-rule="evenodd" d="M14 10.5c0 1.434-.74 2.667-1.798 3.208A7.869 7.869 0 0 0 10.5 13.5c-.313 0-.63.025-.944.069C8.63 12.974 8 11.822 8 10.5 8 8.567 9.343 7 11 7s3 1.567 3 3.5zm10 0c0 1.322-.629 2.474-1.556 3.069a6.917 6.917 0 0 0-.944-.069c-.569 0-1.154.084-1.702.208C18.739 13.167 18 11.934 18 10.5 18 8.567 19.343 7 21 7s3 1.567 3 3.5z" fill="url(#a)"/><defs><linearGradient id="a" x1="22.154" y1="7" x2="20.724" y2="13.648" gradientUnits="userSpaceOnUse"><stop stop-color="#553B3E"/><stop offset="1" stop-color="#3D2432"/></linearGradient></defs></svg>
